X:1
T:The Old Fountain
T:The Old Fountain
T:William James Kirkpatrick
T:Emma Mansfield Johnston, 1896
T:Public Domain Courtesy of the Cyber Hymnal™
T:Public Domain Courtesy of the Cyber Hymnal™
C:William James Kirkpatrick
Z:Public Domain
Z:Courtesy of the Cyber Hymnal™
%%score ( 1 2 ) ( 3 4 )
L:1/8
Q:1/4=92
M:4/4
K:G
V:1 treble 
V:2 treble 
V:3 bass 
V:4 bass 
V:1
 D>D | [DG]>[DG] [DG]>[DG] [DG]2 [DG]>[DF] | [CE]>[CE] [CE]>[CE] [CE]2 [CF]>[CE] | %3
w: 1.~By Sa-|ma- ria’s way- side well Once a|bless- èd mes- sage fell On a|
w: 2.~And a|lit- tle cap- tive maid, By a|lep- er un- dis- mayed, Told to|
w: 3.~And a|wo- man in a crowd, With- out|word or cry a- loud, Just stooped|
w: 4.~As the|eu- nuch tried to read Phil- ip|taught him of his need, And bap-|
w: 5.~O thou|fount- ain, deep and wide, Flow- ing|from the wound- ed side, That was|
 [B,D]>[B,D] [B,D]>[B,D] ([DG][DG]) [GB]>[GB] | [FA]6 [DG]>[DA] | %5
w: wo- man’s thirst- y soul, * Long a-|go; And to|
w: him a sim- ple story, * Long a-|go; That the|
w: down and touched His garment, * Long a-|go; As her|
w: tized him in the stream, * Long a-|go; As the|
w: pierced for our re- demption, * Long a-|go; In thy|
 [GB]>[GB] [GB]>[GB] [GB]2 [DA]>[DG] | [GB]>[GB] [DG]>[CE] [B,D]2 D>D | %7
w: eyes that long were sealed Was the|glor- ious light re- vealed, Thro’ a|
w: stream where he might lave Had a-|lone the power to save, Thro’ his|
w: ur- gent soul ap- pealed, So her|sin- ful soul was healed, In that|
w: out- ward seal and sign Of an|in- ward work di- vine, That was|
w: ev- er cleans- ing wave There is|found all power to save ’Tis the|
 [CE]>[DF] [EG]>[_EA] [DB][B,G] [DB]>[CA] | [B,G]6 ||"^Refrain" [GB]>[Gc] | %10
w: fount- ain that was o- pened Long a-|go.||
w: trust in that old fount- ain, Long a-|go.||
w: fount- ain that was o- pened, Long a-|go.|There’s a|
w: wrought through that old fount- ain, Long a-|go.||
w: power that healed the na- tions, Long a-|go.||
 [Gd]>[Gd] [Gd]>[Ge] [Gd]>[GB] [Gd]>[GB] | (G2!p! G>A [GB]2) [GB]>[Gc] | %12
w: ||
w: ||
w: fount- ain that was o- pened Long a-|go, * * * For the|
w: ||
w: ||
 [Gd]>[Gd] [Gd]>[Ge] [Gd]>[GB] [Gd]>[GB] | A4- [DA]3 D | [DG]>[DG] [DG]>[DG] [DG] [GB]2 G | %15
w: |||
w: |||
w: heal- ing of the na- tions Is its|flow; A- long|the line of ag- es The pro-|
w: |||
w: |||
 [FA]<[FA] [FA]>[FA] [FA]<[Fc] [DB]>[Dc] | [Dd][GB] [DG]>[CE] [B,D]<[DB] [FB]>[FA] | G4- [DG]2 |] %18
w: |||
w: |||
w: phets and the sag- es Caught the sing-|ing of its wa- ters, Long a- go.||
w: |||
w: |||
V:2
 D>D | x8 | x8 | x8 | x8 | x8 | x6 D>D | x8 | x6 || x2 | x8 | D4 x4 | x8 | (F2 G2 x D) x2 | x7 G | %15
 x8 | x8 | G2 E>E x2 |] %18
V:3
 D,>D, | [G,,B,]>[G,,B,] [G,,B,]>[G,,B,] [G,,B,]2 [B,,G,]>[B,,G,] | %2
 [C,G,]>[C,G,] [C,G,]>[C,G,] [C,G,]2 [C,G,]>[C,G,] | %3
 [G,,G,]>[G,,G,] [G,,G,]>[G,,G,] ([G,B,][G,B,]) [G,D]>[G,D] | [D,D]6 [G,B,]>[G,C] | %5
 [G,D]>[G,D] [G,D]>[G,D] [G,D]2 [G,C]>[G,B,] | [G,D]>[G,D] [G,B,]>G, G,2 [B,,G,]>[B,,G,] | %7
 [C,G,]>[C,G,] [C,G,]>[C,G,] [D,G,][D,G,] [D,G,]>[D,F,] | [G,,G,]6 || [G,D]>[G,D] | %10
 [G,B,]>[G,B,] [G,B,]>[G,C] [G,B,]>[G,D] [G,B,]>[G,D] | (B,2 B,>C D2) [G,D]>[G,D] | %12
 [G,B,]>[G,B,] [G,B,]>[G,C] [G,B,]>[G,D] [G,B,]>[G,D] | ([D,D]2 [E,^C]2 [F,=C]3) [G,B,] | %14
 [G,B,]>[G,B,] [G,B,]>[G,B,] [G,B,] [G,D]2 [G,B,] | %15
 [D,C]<[D,C] [D,C]<[D,C] [D,C]<[D,A,] G,>[G,A,] | %16
 [G,B,][G,D] [B,,G,]>[B,,G,] [D,G,]<[D,G,] [D,D]>[D,C] | (B,2 C>C [G,,B,]2) |] %18
V:4
 D,>D, | x8 | x8 | x8 | x8 | x8 | x7/2 G,/ G,2 x2 | x8 | x6 || x2 | x8 | G,6 x2 | x8 | x8 | x8 | %15
 x6 G,3/2 x/ | x8 | G,,4- x2 |] %18

